X:1
T:Never Weather-Beaten Sail
T:Never Weather-Beaten Sail
T:Thomas Campion (1567-1620)
C:Thomas Campion (1567-1620)
L:1/8
M:2/2
K:G
V:1 treble 
V:1
 B2 B2 A3 d | c2 c2 B3 e | d2 G2 A2 A2 | G8 :| B2 AB c2 GA | B2 FG A3 A | BA Bc d3 e | dc Bc A4 |: %8
 E3 E F2 D2 | G3 G A2 F2 | B3 B c2 A2 | dc BA G2 EF | GA Bc A3 G | !fermata!G8 :| %14

